MonoIcons/scalable/status/bluetooth-active-symbolic.svg

<?xml version="1.0" encoding="UTF-8"?>
<svg height="16px" viewBox="0 0 16 16" width="16px" xmlns="http://www.w3.org/2000/svg">
    <path d="m 7.585938 0.0898438 c -0.355469 0.1640622 -0.585938 0.5195312 -0.585938 0.9101562 v 5.296875 l -2.34375 -2.046875 c -0.414062 -0.363281 -1.042969 -0.324219 -1.40625 0.089844 c -0.363281 0.417968 -0.324219 1.046875 0.09375 1.410156 l 2.566406 2.25 l -2.566406 2.25 c -0.417969 0.363281 -0.457031 0.992188 -0.09375 1.40625 c 0.363281 0.417969 0.992188 0.457031 1.40625 0.09375 l 2.34375 -2.046875 v 5.296875 c 0 0.390625 0.230469 0.746094 0.585938 0.910156 c 0.359374 0.160156 0.777343 0.101563 1.070312 -0.160156 l 4 -3.5 c 0.21875 -0.1875 0.34375 -0.460938 0.34375 -0.75 s -0.125 -0.5625 -0.34375 -0.75 l -3.140625 -2.75 l 3.140625 -2.75 c 0.21875 -0.1875 0.34375 -0.460938 0.34375 -0.75 s -0.125 -0.5625 -0.34375 -0.75 l -4 -3.5 c -0.292969 -0.2617188 -0.710938 -0.3242188 -1.070312 -0.1601562 z m 1.414062 3.1132812 l 1.484375 1.296875 l -1.484375 1.296875 z m 0 7 l 1.484375 1.296875 l -1.484375 1.296875 z m 0 0" fill="#2e3436"/>
</svg>

<svg width="16" height="16" viewBox="0 0 16 16" fill="none" xmlns="http://www.w3.org/2000/svg">
<g clip-path="url(#clip0_231_967)">
<path d="M7.58586 0.089835C7.23039 0.253897 6.99992 0.609366 6.99992 0.999991V6.29687L4.65617 4.24999C4.24211 3.88671 3.6132 3.92577 3.24992 4.33984C2.88664 4.7578 2.9257 5.38671 3.34367 5.74999L5.91007 7.99999L3.34367 10.25C2.9257 10.6133 2.88664 11.2422 3.24992 11.6562C3.6132 12.0742 4.24211 12.1133 4.65617 11.75L6.99992 9.70312V15C6.99992 15.3906 7.23039 15.7461 7.58586 15.9101C7.94523 16.0703 8.3632 16.0117 8.65617 15.75L12.6562 12.25C12.8749 12.0625 12.9999 11.7891 12.9999 11.5C12.9999 11.2109 12.8749 10.9375 12.6562 10.75L9.51554 7.99999L12.6562 5.24999C12.8749 5.06249 12.9999 4.78905 12.9999 4.49999C12.9999 4.21093 12.8749 3.93749 12.6562 3.74999L8.65617 0.249991C8.3632 -0.0117276 7.94523 -0.0742276 7.58586 0.089835V0.089835ZM8.99992 3.20312L10.4843 4.49999L8.99992 5.79687V3.20312ZM8.99992 10.2031L10.4843 11.5L8.99992 12.7969V10.2031Z" fill="#2E3436"/>
</g>
<defs>
<clipPath id="clip0_231_967">
<rect width="16" height="16" fill="white"/>
</clipPath>
</defs>
</svg>
